assets/logos/icons/arrow-quit.svg

<svg height="24" viewBox="0 0 24 24" width="24" xmlns="http://www.w3.org/2000/svg"><path d="m12.9937085 15h9.0062915v2h-9c-1.1045695 0-2-.8954305-2-2h-.0062915v-7.50842712l-3.22949494 3.22949492-1.41421356-1.41421355 5.6568542-5.65685425 5.6568543 5.65685425-1.4142136 1.41421355-3.2557864-3.25578643z" fill="#492f5c" fill-rule="evenodd"/></svg>

<svg xmlns="http://www.w3.org/2000/svg" width="24" height="24" viewBox="0 0 24 24">
  <path fill="#492F5C" fill-rule="evenodd" d="M12.9937085,15 L22,15 L22,17 L13,17 C11.8954305,17 11,16.1045695 11,15 L10.9937085,15 L10.9937085,7.49157288 L7.76421356,10.7210678 L6.35,9.30685425 L12.0068542,3.65 L17.6637085,9.30685425 L16.2494949,10.7210678 L12.9937085,7.46528137 L12.9937085,15 Z"/>
</svg>
